X:962
T:Madam Bonaparte
C:anon.
O:Ireland
B:Francis O'Neill: "The Dance Music of Ireland" (1907) no. 962
R:Long dance, set dance
M:C
L:1/8
K:A
(ed)|c2(cB) cecA|d2(dc) dfdB|Aceg agaf|e2(ef) edcB|c2(cB) cecA|dcde fgaf|
ecAc dBGB|A2A2A2::(cB)|Aceg agaf|e2(ef) edcB|Aceg agaf|e2ef edcB|ceAe ceAe|
dfBf dfBf|ceAe ceAe|GBEB GBEB|ceAe ceAe|dcde fgaf|ecAc dBGB A2A2A2:|
